src/assets/images/wallacoins-tutorial-1.svg

<?xml version="1.0" encoding="UTF-8"?>
<svg width="300px" height="200px" viewBox="0 0 300 200" version="1.1" xmlns="http://www.w3.org/2000/svg" xmlns:xlink="http://www.w3.org/1999/xlink">
    <!-- Generator: Sketch 51.2 (57519) - http://www.bohemiancoding.com/sketch -->
    <title>onboarding_1</title>
    <desc>Created with Sketch.</desc>
    <defs></defs>
    <g id="onboarding" stroke="none" stroke-width="1" fill="none" fill-rule="evenodd">
        <g id="onboarding_1" transform="translate(-570.000000, -163.000000)">
            <g id="Group-9" transform="translate(570.000000, 163.000000)">
                <rect id="Rectangle-6" fill-opacity="0" fill="#FFFFFF" fill-rule="nonzero" x="0" y="5" width="300" height="200"></rect>
                <circle id="Oval" fill="#C1F5E6" opacity="0.5" cx="151" cy="99" r="75"></circle>
                <g id="Group-43" transform="translate(61.000000, 11.000000)">
                    <g id="Group-8">
                        <path d="M4.81591797,68.5166016 C10.7197266,72.5244141 18.8564453,79.309082 22.137207,79.309082 C25.4179688,79.309082 43.5507813,81.2636719 64.0063477,53.1948242 C84.4619141,25.1259766 71.5288086,11.5385742 69.4257813,10.5639648 C67.3227539,9.58935547 56.9296875,-1.10449219 50.6611328,0.82421875 C44.3925781,2.75292969 23.9780273,7.19775391 10.5,28.5600586 C-2.97802734,49.9223633 -1.08789062,64.5087891 4.81591797,68.5166016 Z" id="Path-2" fill="#FFFFFF" fill-rule="nonzero"></path>
                        <path d="M130.227764,113.579703 C135.730095,117.314971 143.313491,123.63826 146.37115,123.63826 C149.428809,123.63826 166.328532,125.459931 185.393054,99.2998556 C204.457577,73.1397799 192.403964,60.4763646 190.443949,59.5680318 C188.483934,58.659699 178.79763,48.6930674 172.955357,50.4906198 C167.113084,52.2881722 148.086789,56.4307341 135.525311,76.3403333 C122.963832,96.2499326 124.725434,109.844434 130.227764,113.579703 Z" id="Path-2" fill="#FFFFFF" fill-rule="nonzero" transform="translate(161.019217, 86.969863) rotate(104.000000) translate(-161.019217, -86.969863) "></path>
                        <path d="M67.5358575,175.469221 C72.0367182,178.52464 78.2398729,183.697037 80.7410129,183.697037 C83.2421529,183.697037 97.0659859,185.18715 112.660607,163.788425 C128.255227,142.3897 118.395472,132.031132 116.792197,131.288123 C115.188921,130.545114 107.265604,122.392492 102.486674,123.862875 C97.7077429,125.333258 82.144391,128.721839 71.8692062,145.007726 C61.5940214,161.293613 63.0349967,172.413803 67.5358575,175.469221 Z" id="Path-2" fill="#FFFFFF" fill-rule="nonzero" transform="translate(92.723010, 153.702593) rotate(78.000000) translate(-92.723010, -153.702593) "></path>
                        <path d="M59.4396927,3.85787805 C68.2575463,11.4717805 63.0598878,31.939878 47.8330098,49.5755854 C32.604278,67.2103659 13.1121317,75.3340244 4.29427805,67.720122 C-4.52357561,60.1062195 0.673156098,39.6371951 15.900961,22.0024146 C31.1296927,4.36763415 50.621839,-3.75602439 59.4396927,3.85787805" id="Stroke-1" stroke="#13C1AC" stroke-width="3" stroke-linecap="round" stroke-linejoin="round"></path>
                        <path d="M58.328239,3.0178 C58.4190683,3.09565366 71.6486293,13.060922 71.7357512,13.1415561 C80.1791659,20.9371171 74.934239,41.1670195 59.8612146,58.6210683 C44.9021902,75.9462878 25.8252634,84.0912634 16.7979463,77.1530195 C16.636678,77.0288244 4.80848293,68.1238488 4.65370244,67.9903854" id="Stroke-3" stroke="#13C1AC" stroke-width="3" stroke-linecap="round" stroke-linejoin="round"></path>
                        <path d="M22.2081268,68.6738293 L32.4977854,76.6556829" id="Stroke-5" stroke="#13C1AC" stroke-width="3" stroke-linecap="round" stroke-linejoin="round"></path>
                        <path d="M42.6056,57.3338878 L52.3882829,64.8940341" id="Stroke-7" stroke="#13C1AC" stroke-width="3" stroke-linecap="round" stroke-linejoin="round"></path>
                        <path d="M55.5359805,40.4996098 L66.5374439,48.8382927" id="Stroke-9" stroke="#13C1AC" stroke-width="3" stroke-linecap="round" stroke-linejoin="round"></path>
                        <path d="M63.6837366,19.8278878 L75.1773463,28.7152537" id="Stroke-11" stroke="#13C1AC" stroke-width="3" stroke-linecap="round" stroke-linejoin="round"></path>
                        <path d="M50.3361902,15.409878 C47.6270683,13.070561 35.2177512,16.9706585 23.8835561,30.0964146 C14.8516049,40.5566098 11.528922,50.9120732 12.2648244,56.107878" id="Stroke-13" stroke="#C1F5E6" stroke-width="3" stroke-linecap="round" stroke-linejoin="round"></path>
                    </g>
                    <g id="Group-4" transform="translate(60.000000, 128.000000)" stroke-linecap="round" stroke-linejoin="round" stroke-width="3">
                        <path d="M62.7656229,33.8817829 C58.9850514,41.74464 43.1715657,41.9887543 27.4467657,34.4276114 C11.7210514,26.8664686 2.03785143,14.3626971 5.81842286,6.49984 C9.59899429,-1.36301714 25.41248,-1.60804571 41.1381943,5.95401143 C56.8629943,13.5151543 66.5471086,26.0189257 62.7656229,33.8817829" id="Stroke-15" stroke="#13C1AC"></path>
                        <path d="M63.15584,32.9137371 C63.11744,32.9941943 58.4993829,44.50688 58.45824,44.5864229 C54.4728686,52.2133943 38.82304,52.3761371 23.25824,44.8927086 C7.80955429,37.4641371 -1.80781714,25.2657371 1.44338286,17.38368 C1.50098286,17.2419657 5.62624,6.95076571 5.69298286,6.81270857" id="Stroke-17" stroke="#13C1AC"></path>
                        <path d="M8.63076571,19.6368457 L4.87213714,28.6352457" id="Stroke-19" stroke="#13C1AC"></path>
                        <path d="M20.8156343,32.1654857 L17.26272,40.7158857" id="Stroke-21" stroke="#13C1AC"></path>
                        <path d="M35.5138743,38.2224457 L31.6363886,47.8059886" id="Stroke-23" stroke="#13C1AC"></path>
                        <path d="M52.0504686,40.0717714 L47.8730971,50.1179429" id="Stroke-25" stroke="#13C1AC"></path>
                        <path d="M52.6352457,29.5588571 C53.7973029,27.1433143 48.5511314,18.9348571 36.8464457,13.3065143 C27.5189029,8.82194286 19.3835886,8.44434286 15.7712457,9.99222857" id="Stroke-27" stroke="#C1F5E6"></path>
                    </g>
                    <g id="Group-4" transform="translate(90.499313, 85.351285) rotate(42.000000) translate(-90.499313, -85.351285) translate(62.999313, 59.851285)">
                        <path d="M18.1298151,5.4581288 C24.0217142,3.58799705 27.7068322,2.9646198 29.185169,3.58799705 C31.4026742,4.52306293 39.7770035,9.47951944 42.0177443,20.2057344 C44.2584851,30.9319494 41.729981,44.6076855 35.0089502,46.3760099 C28.2879194,48.1443343 21.5275669,48.9437534 18.1298151,43.6630752 C14.7320632,38.3823969 9.79778639,22.4524377 12.2649248,15.6446491 C13.9096838,11.1061234 15.8646472,7.71061659 18.1298151,5.4581288 Z" id="Path-3" fill="#FFFFFF" fill-rule="nonzero" transform="translate(27.206909, 25.533788) rotate(-58.000000) translate(-27.206909, -25.533788) "></path>
                        <path d="M48.6189309,31.9729967 C45.9906099,37.4393959 34.9967911,37.6091085 24.0646283,32.3524665 C13.1318298,27.0958244 6.39989555,18.4029784 9.02821658,12.9365791 C11.6565376,7.47017987 22.6503564,7.29983161 33.5831549,12.5571093 C44.5153177,17.8137514 51.2478876,26.5065974 48.6189309,31.9729967" id="Stroke-15" stroke="#13C1AC" stroke-width="3" stroke-linecap="round" stroke-linejoin="round"></path>
                        <path d="M48.8902169,31.2999939 C48.8635205,31.3559292 45.6529644,39.3597547 45.6243611,39.4150543 C42.8536595,44.7174616 31.9736181,44.8306033 21.1526901,39.6279896 C10.4124868,34.4635136 3.72631781,25.9829672 5.98661034,20.5032198 C6.02665489,20.4046975 8.89460761,13.2500707 8.94100844,13.1540909" id="Stroke-17" stroke="#13C1AC" stroke-width="3" stroke-linecap="round" stroke-linejoin="round"></path>
                        <path d="M10.9834077,22.069661 L8.37034179,28.32551" id="Stroke-19" stroke="#13C1AC" stroke-width="3" stroke-linecap="round" stroke-linejoin="round"></path>
                        <path d="M19.4545468,30.7797961 L16.9844971,36.7241875" id="Stroke-21" stroke="#13C1AC" stroke-width="3" stroke-linecap="round" stroke-linejoin="round"></path>
                        <path d="M29.6730268,34.9907033 L26.9773292,41.6533541" id="Stroke-23" stroke="#13C1AC" stroke-width="3" stroke-linecap="round" stroke-linejoin="round"></path>
                        <path d="M41.1695636,36.2763877 L38.2653801,43.2606662" id="Stroke-25" stroke="#13C1AC" stroke-width="3" stroke-linecap="round" stroke-linejoin="round"></path>
                        <path d="M41.5761111,28.9676212 C42.3839941,27.2882925 38.7367616,21.5816259 30.5994543,17.6687011 C24.1147793,14.5509466 18.458963,14.2884324 15.9475975,15.3645503" id="Stroke-27" stroke="#C1F5E6" stroke-width="3" stroke-linecap="round" stroke-linejoin="round"></path>
                    </g>
                    <g id="Group-5" transform="translate(128.000000, 48.000000)" stroke-linecap="round" stroke-linejoin="round" stroke-width="3">
                        <path d="M69.2614145,65.9053807 C60.6381855,73.4355494 41.4391976,65.5603446 26.3770771,48.3138867 C11.3167398,31.0683205 6.09751084,10.9831157 14.7207398,3.45294699 C23.3439687,-4.07722169 42.5429566,3.79798313 57.6041855,21.044441 C72.6645229,38.2900072 77.8837518,58.375212 69.2614145,65.9053807" id="Stroke-29" stroke="#13C1AC"></path>
                        <path d="M70.2312602,64.9393687 C70.1429952,65.0169349 58.6248506,76.5163566 58.5339108,76.5903566 C49.7858627,83.7318024 30.8258145,75.841441 15.9197181,58.7724048 C1.12328434,41.8299711 -4.17440241,22.1468627 3.82027229,14.3198024 C3.96381446,14.1798265 14.256947,3.89828434 14.4085133,3.76544096" id="Stroke-31" stroke="#13C1AC"></path>
                        <path d="M11.3252096,20.7517398 L2.14118554,29.6638361" id="Stroke-33" stroke="#13C1AC"></path>
                        <path d="M19.5487494,42.1598506 L10.8452795,50.6368627" id="Stroke-35" stroke="#13C1AC"></path>
                        <path d="M34.1472554,57.0596169 L24.5183398,66.6154241" id="Stroke-37" stroke="#13C1AC"></path>
                        <path d="M53.1383301,67.8349084 L42.9076072,77.7937036" id="Stroke-39" stroke="#13C1AC"></path>
                        <path d="M59.275694,55.4564916 C61.9245373,53.1437687 59.8391639,40.5325639 48.6295012,27.6957928 C39.6960072,17.466853 30.0777904,12.8075277 24.9209711,12.8075277" id="Stroke-41" stroke="#C1F5E6"></path>
                    </g>
                </g>
            </g>
        </g>
    </g>
</svg>

<svg width="300" height="200" viewBox="0 0 300 200" xmlns="http://www.w3.org/2000/svg"><g id="onboarding" fill="none" fill-rule="evenodd"><g id="onboarding_1" transform="translate(-570 -163)"><g id="Group-9" transform="translate(570 163)"><path id="Rectangle-6" fill-opacity="0" fill="#FFF" fill-rule="nonzero" d="M0 5h300v200H0z"/><circle id="Oval" fill="#C1F5E6" opacity=".5" cx="151" cy="99" r="75"/><g id="Group-43" transform="translate(61 11)"><g id="Group-8"><path d="M4.816 68.517c5.904 4.007 14.04 10.792 17.321 10.792 3.281 0 21.414 1.955 41.87-26.114 20.455-28.069 7.522-41.656 5.419-42.631C67.323 9.589 56.93-1.104 50.66.824 44.393 2.753 23.978 7.198 10.5 28.56-2.978 49.922-1.088 64.51 4.816 68.517z" id="Path-2" fill="#FFF" fill-rule="nonzero"/><path d="M130.228 113.58c5.502 3.735 13.085 10.058 16.143 10.058s19.958 1.822 39.022-24.338c19.065-26.16 7.011-38.824 5.05-39.732-1.96-.908-11.645-10.875-17.488-9.077-5.842 1.797-24.868 5.94-37.43 25.85-12.561 19.909-10.8 33.503-5.297 37.239z" id="Path-2" fill="#FFF" fill-rule="nonzero" transform="rotate(104 161.02 86.97)"/><path d="M67.536 175.47c4.5 3.055 10.704 8.227 13.205 8.227 2.501 0 16.325 1.49 31.92-19.909 15.594-21.398 5.734-31.757 4.131-32.5-1.603-.743-9.526-8.896-14.305-7.425-4.78 1.47-20.343 4.859-30.618 21.145-10.275 16.286-8.834 27.406-4.333 30.461z" id="Path-2" fill="#FFF" fill-rule="nonzero" transform="rotate(78 92.723 153.703)"/><path d="M59.44 3.858c8.818 7.614 3.62 28.082-11.607 45.718C32.604 67.21 13.113 75.334 4.294 67.72c-8.818-7.614-3.62-28.083 11.607-45.718C31.13 4.368 50.621-3.756 59.44 3.858" id="Stroke-1" stroke="#13C1AC" stroke-width="3" stroke-linecap="round" stroke-linejoin="round"/><path d="M58.328 3.018c.091.078 13.32 10.043 13.408 10.124 8.443 7.795 3.198 28.025-11.875 45.48-14.959 17.324-34.036 25.47-43.063 18.531-.161-.124-11.99-9.03-12.144-9.163" id="Stroke-3" stroke="#13C1AC" stroke-width="3" stroke-linecap="round" stroke-linejoin="round"/><path d="M22.208 68.674l10.29 7.982" id="Stroke-5" stroke="#13C1AC" stroke-width="3" stroke-linecap="round" stroke-linejoin="round"/><path d="M42.606 57.334l9.782 7.56" id="Stroke-7" stroke="#13C1AC" stroke-width="3" stroke-linecap="round" stroke-linejoin="round"/><path d="M55.536 40.5l11.001 8.338" id="Stroke-9" stroke="#13C1AC" stroke-width="3" stroke-linecap="round" stroke-linejoin="round"/><path d="M63.684 19.828l11.493 8.887" id="Stroke-11" stroke="#13C1AC" stroke-width="3" stroke-linecap="round" stroke-linejoin="round"/><path d="M50.336 15.41c-2.709-2.34-15.118 1.56-26.452 14.686-9.032 10.46-12.355 20.816-11.62 26.012" id="Stroke-13" stroke="#C1F5E6" stroke-width="3" stroke-linecap="round" stroke-linejoin="round"/></g><g id="Group-4" transform="translate(60 128)" stroke-linecap="round" stroke-linejoin="round" stroke-width="3"><path d="M62.766 33.882c-3.78 7.863-19.594 8.107-35.32.546C11.722 26.866 2.039 14.363 5.819 6.5c3.781-7.863 19.594-8.108 35.32-.546 15.725 7.561 25.41 20.065 21.628 27.928" id="Stroke-15" stroke="#13C1AC"/><path d="M63.156 32.914c-.039.08-4.657 11.593-4.698 11.672-3.985 7.627-19.635 7.79-35.2.307C7.81 37.464-1.808 25.266 1.443 17.383c.058-.141 4.183-10.432 4.25-10.57" id="Stroke-17" stroke="#13C1AC"/><path d="M8.63 19.637l-3.758 8.998" id="Stroke-19" stroke="#13C1AC"/><path d="M20.816 32.165l-3.553 8.55" id="Stroke-21" stroke="#13C1AC"/><path d="M35.514 38.222l-3.878 9.584" id="Stroke-23" stroke="#13C1AC"/><path d="M52.05 40.072l-4.177 10.046" id="Stroke-25" stroke="#13C1AC"/><path d="M52.635 29.559c1.162-2.416-4.084-10.624-15.789-16.252-9.327-4.485-17.462-4.863-21.075-3.315" id="Stroke-27" stroke="#C1F5E6"/></g><g id="Group-4" transform="rotate(42 -18.96 137.485)"><path d="M18.13 5.458c5.892-1.87 9.577-2.493 11.055-1.87 2.218.935 10.592 5.892 12.833 16.618 2.24 10.726-.288 24.402-7.009 26.17-6.721 1.768-13.481 2.568-16.88-2.713-3.397-5.28-8.331-21.21-5.864-28.018 1.645-4.539 3.6-7.934 5.865-10.187z" id="Path-3" fill="#FFF" fill-rule="nonzero" transform="rotate(-58 27.207 25.534)"/><path d="M48.619 31.973c-2.628 5.466-13.622 5.636-24.554.38C13.132 27.095 6.4 18.402 9.028 12.936c2.629-5.467 13.622-5.637 24.555-.38 10.932 5.257 17.665 13.95 15.036 19.416" id="Stroke-15" stroke="#13C1AC" stroke-width="3" stroke-linecap="round" stroke-linejoin="round"/><path d="M48.89 31.3c-.026.056-3.237 8.06-3.266 8.115-2.77 5.302-13.65 5.416-24.471.213-10.74-5.164-17.427-13.645-15.166-19.125.04-.098 2.908-7.253 2.954-7.349" id="Stroke-17" stroke="#13C1AC" stroke-width="3" stroke-linecap="round" stroke-linejoin="round"/><path d="M10.983 22.07L8.37 28.326" id="Stroke-19" stroke="#13C1AC" stroke-width="3" stroke-linecap="round" stroke-linejoin="round"/><path d="M19.455 30.78l-2.47 5.944" id="Stroke-21" stroke="#13C1AC" stroke-width="3" stroke-linecap="round" stroke-linejoin="round"/><path d="M29.673 34.99l-2.696 6.663" id="Stroke-23" stroke="#13C1AC" stroke-width="3" stroke-linecap="round" stroke-linejoin="round"/><path d="M41.17 36.276l-2.905 6.985" id="Stroke-25" stroke="#13C1AC" stroke-width="3" stroke-linecap="round" stroke-linejoin="round"/><path d="M41.576 28.968c.808-1.68-2.84-7.386-10.977-11.3-6.484-3.117-12.14-3.38-14.651-2.303" id="Stroke-27" stroke="#C1F5E6" stroke-width="3" stroke-linecap="round" stroke-linejoin="round"/></g><g id="Group-5" transform="translate(128 48)" stroke-linecap="round" stroke-linejoin="round" stroke-width="3"><path d="M69.261 65.905c-8.623 7.53-27.822-.345-42.884-17.591-15.06-17.246-20.28-37.33-11.656-44.861 8.623-7.53 27.822.345 42.883 17.591 15.06 17.246 20.28 37.331 11.657 44.861" id="Stroke-29" stroke="#13C1AC"/><path d="M70.231 64.94c-.088.077-11.606 11.576-11.697 11.65-8.748 7.142-27.708-.749-42.614-17.818C1.123 41.83-4.174 22.147 3.82 14.32c.144-.14 10.437-10.422 10.589-10.555" id="Stroke-31" stroke="#13C1AC"/><path d="M11.325 20.752l-9.184 8.912" id="Stroke-33" stroke="#13C1AC"/><path d="M19.549 42.16l-8.704 8.477" id="Stroke-35" stroke="#13C1AC"/><path d="M34.147 57.06l-9.629 9.555" id="Stroke-37" stroke="#13C1AC"/><path d="M53.138 67.835l-10.23 9.959" id="Stroke-39" stroke="#13C1AC"/><path d="M59.276 55.456c2.649-2.312.563-14.923-10.646-27.76-8.934-10.23-18.552-14.888-23.709-14.888" id="Stroke-41" stroke="#C1F5E6"/></g></g></g></g></g></svg>
